X: 525
T:The Muckin' o' Geordie's Byre (variant)
M:6/8
L:1/8
R:Jig
N: This is only a rough draft but you'll get the picture.
S: Eamon Cotter @ Flute Recital Miltown 2001 via Radio na Gaelteachta.
N:Posted to the woodenflute mailing list June 2002
Z:Pat Higgins, converted to abc by Steve Mansfield
K:D
dB|A3 (4DEFG |ade f2d|g2e faf|egf edB|
ABA (4DEFG|Ade f2a|afd efe|1d3 dcB:||2d3 def:||
|g3 bge|f3 afd|eaf g2e|fdB Bzz|
|A3 AFB|Ade f2a|afd efe|d3 def:||
<end>
<start>
